polaris-icons/icons/newicons/TextMajor.svg

<svg width="20" height="20" viewBox="0 0 20 20" fill="none" xmlns="http://www.w3.org/2000/svg">
<path fill-rule="evenodd" clip-rule="evenodd" d="M6.74995 2.5C7.05516 2.5 7.32993 2.68495 7.4448 2.96772L10.6948 10.9677C10.8507 11.3515 10.666 11.7889 10.2822 11.9448C9.89848 12.1007 9.461 11.916 9.3051 11.5323L8.47949 9.5H5.02042L4.1948 11.5323C4.0389 11.916 3.60143 12.1007 3.21767 11.9448C2.83392 11.7889 2.6492 11.3515 2.8051 10.9677L6.0551 2.96772C6.16998 2.68495 6.44475 2.5 6.74995 2.5ZM7.87011 8L6.74995 5.24268L5.62979 8H7.87011Z" fill="black"/>
<path d="M3.5 13C3.08579 13 2.75 13.3358 2.75 13.75C2.75 14.1642 3.08579 14.5 3.5 14.5H16.5C16.9142 14.5 17.25 14.1642 17.25 13.75C17.25 13.3358 16.9142 13 16.5 13H3.5Z" fill="black"/>
<path d="M3.5 15.5C3.08579 15.5 2.75 15.8358 2.75 16.25C2.75 16.6642 3.08579 17 3.5 17H12.25C12.6642 17 13 16.6642 13 16.25C13 15.8358 12.6642 15.5 12.25 15.5H3.5Z" fill="black"/>
<path fill-rule="evenodd" clip-rule="evenodd" d="M15.5664 6.44093C15.1105 6.16125 14.5741 6 14 6C12.3431 6 11 7.34315 11 9C11 10.6569 12.3431 12 14 12C14.5741 12 15.1105 11.8387 15.5664 11.5591C15.6842 11.8191 15.946 12 16.25 12C16.6642 12 17 11.6642 17 11.25V6.75C17 6.33579 16.6642 6 16.25 6C15.946 6 15.6842 6.1809 15.5664 6.44093ZM14 10.5C14.8284 10.5 15.5 9.82843 15.5 9C15.5 8.17157 14.8284 7.5 14 7.5C13.1716 7.5 12.5 8.17157 12.5 9C12.5 9.82843 13.1716 10.5 14 10.5Z" fill="black"/>
</svg>

<svg viewBox="0 0 20 20" fill="none" xmlns="http://www.w3.org/2000/svg"><path fill-rule="evenodd" clip-rule="evenodd" d="M6.75 2.5a.75.75 0 0 1 .695.468l3.25 8a.75.75 0 1 1-1.39.564l-.826-2.032h-3.459l-.825 2.032a.75.75 0 0 1-1.39-.564l3.25-8a.75.75 0 0 1 .695-.468Zm1.12 5.5-1.12-2.757-1.12 2.757h2.24Z" fill="#5C5F62"/><path d="M3.5 13a.75.75 0 0 0 0 1.5h13a.75.75 0 0 0 0-1.5h-13Z" fill="#5C5F62"/><path d="M3.5 15.5a.75.75 0 0 0 0 1.5h8.75a.75.75 0 0 0 0-1.5h-8.75Z" fill="#5C5F62"/><path fill-rule="evenodd" clip-rule="evenodd" d="M15.566 6.44a3 3 0 1 0 0 5.118.75.75 0 0 0 1.434-.308v-4.5a.75.75 0 0 0-1.434-.31Zm-1.566 4.06a1.5 1.5 0 1 0 0-3 1.5 1.5 0 0 0 0 3Z" fill="#5C5F62"/></svg>
